X:270
T: Dan Sullivan's Shamrock Band
S: "ITM Session Tunes vol 3" ("Sully")
Z: B.Black
M: 2/4
L: 1/8
R: polka
K: Dmix
A|D>E FG|AG Ad|cA GA/G/|FD CA,|
D>E FG|AG Ad|cA GA/G/|FD D :|
A|d2 cA|GE c>e|dD DE/F/|GD CA,|
D>E FG|AG Ad|cA GA/G/|FD D :|
